frontend/src/assets/logo.svg

<svg xmlns="http://www.w3.org/2000/svg" width="273.972" height="105.418" viewBox="93.014 2.291 233.972 65.418" style="background:0 0" preserveAspectRatio="xMidYMid"><defs><filter id="editing-extrude-glow"><feFlood flood-color="#333" result="flood-1"/><feMorphology radius="1" in="SourceAlpha" result="erode"/><feComposite operator="in" in="flood-1" in2="erode" result="comp1"/><feConvolveMatrix order="3,3" divisor="1" in="comp1" result="convolve" kernelMatrix="0 0 0 1 1 1 0 0 0"/><feOffset dx="-3" in="convolve" result="extrude"/><feComposite operator="in" in="flood-1" in2="extrude" result="comp-extrude"/><feFlood flood-color="#000" result="flood-2"/><feComposite operator="in" in="flood-2" in2="SourceAlpha" result="comp2"/><feMorphology operator="dilate" radius="1" in="comp2" result="dilate"/><feOffset dx="-4.5" in="dilate" result="offset"/><feGaussianBlur in="offset" stdDeviation="5.8" result="blur"/><feComponentTransfer in="blur" result="shadow"><feFuncA type="linear" slope=".8" intercept="-.2"/></feComponentTransfer><feMerge><feMergeNode in="shadow"/><feMergeNode in="comp-extrude"/><feMergeNode in="SourceGraphic"/></feMerge></filter></defs><path d="M3.88-16.22v-22.91q0-6.25 1.03-9.18 1.03-2.94 2.25-4.32 2.65-3 7.75-3.03 7.12.03 9.18 6.28 1.19 3.6 1.19 9.57v6.09h-6.34v-6.12q0-5.29-.58-7.14-.58-1.86-1.39-2.47-.81-.61-2.06-.61-2.6 0-3.58 2.45-.99 2.45-.99 7.73v23.82q0 6.25.89 8.73.9 2.49 3.44 2.49 2.55 0 3.41-2.5.86-2.5.86-8.75v-6.1h6.4v6.03q0 8.66-2.36 12.74Q20.63.66 14.75.66q-5.87 0-8.37-4.21-2.5-4.2-2.5-12.67zm43.81-31.22q.12 0 .12 4.06L47.78-42q-5.62 0-8.06 3.91V0h-6.44v-46.88h6.44v5.22q.81-2.75 2.86-4.26 2.05-1.52 5.11-1.52zM67.09-8v-17.84q-3.93 1.78-5.25 2.75-1.31.96-1.98 2.26-.67 1.3-.67 4.27v4.34q0 4.09.72 5.77.72 1.67 2.47 1.67 1.75 0 3-1.02 1.25-1.01 1.71-2.2zM53.31-31.97v-1.34q0-8.5 2.66-11.32 2.66-2.81 7.56-2.81 4.91 0 7.11 2.38 2.2 2.37 2.7 7.62.22 2.25.22 5.53V0h-6.43v-4.06q-.5 1.68-2.19 3.08Q63.25.41 60.75.41q-7.97 0-8.03-12.44v-4.56q0-4.04 2.2-6.89 2.21-2.86 12.17-6.52v-3.63q0-6.03-.87-7.25-.88-1.21-2.99-1.21-2.1 0-2.82 1.84-.72 1.84-.72 6.66v1.62h-6.38zm27.57-9.37v-5.54h16.15v4.41l-10.34 37h9.81V0H80.09v-4.78l10.32-36.56h-9.53zm32.46 18.84l3.07-24.38h6.18L114.81.91q-.56 3.9-1.43 5.09-.88 1.19-1.94 1.52-1.06.32-2.78.32h-6.28V3h2.21q3.29 0 3.63-.75.28-.34.28-1.34t-.25-2.57l-7.66-45.22h6.22l3.38 24.38 1.37 12.69h.57l1.21-12.69zm29.94 6.28v-22.91q0-6.25 1.03-9.18 1.03-2.94 2.25-4.32 2.66-3 7.75-3.03 7.13.03 9.19 6.28 1.19 3.6 1.19 9.57v6.09h-6.35v-6.12q0-5.29-.57-7.14-.58-1.86-1.39-2.47-.82-.61-2.07-.61-2.59 0-3.58 2.45-.98 2.45-.98 7.73v23.82q0 6.25.89 8.73.89 2.49 3.44 2.49t3.4-2.5q.86-2.5.86-8.75v-6.1h6.41v6.03q0 8.66-2.36 12.74T154.16.66q-5.88 0-8.38-4.21-2.5-4.2-2.5-12.67zM186.41-8v-17.84q-3.94 1.78-5.25 2.75-1.32.96-1.99 2.26-.67 1.3-.67 4.27v4.34q0 4.09.72 5.77.72 1.67 2.47 1.67 1.75 0 3-1.02 1.25-1.01 1.72-2.2zm-13.78-23.97v-1.34q0-8.5 2.65-11.32 2.66-2.81 7.56-2.81 4.91 0 7.11 2.38 2.21 2.37 2.71 7.62.22 2.25.22 5.53V0h-6.44v-4.06q-.5 1.68-2.19 3.08-1.69 1.39-4.19 1.39-7.97 0-8.03-12.44v-4.56q0-4.04 2.2-6.89 2.21-2.86 12.18-6.52v-3.63q0-6.03-.88-7.25-.87-1.21-2.98-1.21t-2.83 1.84q-.72 1.84-.72 6.66v1.62h-6.37zm30.12-14.53V-55h6.41v8.5h5.06v4.75h-5.06v34.22q0 1.81.84 2.26.84.46 4.28.46V.28h-4.4q-4.44 0-5.79-1.61-1.34-1.61-1.34-5.64v-34.78h-4.28v-4.75h4.28z" fill="#eb6c6c" transform="translate(100.92 65.563)" filter="url(#editing-extrude-glow)"/><style></style></svg>

<svg width="273.9724609375px" height="105.4175048828125px" xmlns="http://www.w3.org/2000/svg"
     viewBox="93.01376953125 2.291247558593753 233.9724609375 65.4175048828125" style="background: rgba(0, 0, 0, 0);"
     preserveAspectRatio="xMidYMid">
    <defs>
        <filter id="editing-extrude-glow">
            <feFlood flood-color="#333333" result="flood-1"></feFlood>
            <feMorphology operator="erode" radius="1" in="SourceAlpha" result="erode"></feMorphology>
            <feComposite operator="in" in="flood-1" in2="erode" result="comp1"></feComposite>
            <feConvolveMatrix order="3,3" divisor="1" in="comp1" result="convolve"
                              kernelMatrix="0 0 0 1 1 1 0 0 0"></feConvolveMatrix>
            <feOffset dx="-3" dy="0" in="convolve" result="extrude"></feOffset>
            <feComposite operator="in" in="flood-1" in2="extrude" result="comp-extrude"></feComposite>
            <feFlood flood-color="#000000" result="flood-2"></feFlood>
            <feComposite operator="in" in="flood-2" in2="SourceAlpha" result="comp2"></feComposite>
            <feMorphology operator="dilate" radius="1" in="comp2" result="dilate"></feMorphology>
            <feOffset dx="-4.5" dy="0" in="dilate" result="offset"></feOffset>
            <feGaussianBlur in="offset" stdDeviation="5.8" result="blur"></feGaussianBlur>
            <feComponentTransfer in="blur" result="shadow">
                <feFuncA type="linear" slope="0.8" intercept="-0.2"></feFuncA>
            </feComponentTransfer>
            <feMerge>
                <feMergeNode in="shadow"></feMergeNode>
                <feMergeNode in="comp-extrude"></feMergeNode>
                <feMergeNode in="SourceGraphic"></feMergeNode>
            </feMerge>
        </filter>
    </defs>
    <g filter="url(#editing-extrude-glow)">
        <g transform="translate(100.9200029373169, 65.5625)">
            <path d="M3.88-16.22L3.88-39.13L3.88-39.13Q3.88-45.38 4.91-48.31L4.91-48.31L4.91-48.31Q5.94-51.25 7.16-52.63L7.16-52.63L7.16-52.63Q9.81-55.63 14.91-55.66L14.91-55.66L14.91-55.66Q22.03-55.63 24.09-49.38L24.09-49.38L24.09-49.38Q25.28-45.78 25.28-39.81L25.28-39.81L25.28-33.72L18.94-33.72L18.94-39.84L18.94-39.84Q18.94-45.13 18.36-46.98L18.36-46.98L18.36-46.98Q17.78-48.84 16.97-49.45L16.97-49.45L16.97-49.45Q16.16-50.06 14.91-50.06L14.91-50.06L14.91-50.06Q12.31-50.06 11.33-47.61L11.33-47.61L11.33-47.61Q10.34-45.16 10.34-39.88L10.34-39.88L10.34-16.06L10.34-16.06Q10.34-9.81 11.23-7.33L11.23-7.33L11.23-7.33Q12.13-4.84 14.67-4.84L14.67-4.84L14.67-4.84Q17.22-4.84 18.08-7.34L18.08-7.34L18.08-7.34Q18.94-9.84 18.94-16.09L18.94-16.09L18.94-22.19L25.34-22.19L25.34-16.16L25.34-16.16Q25.34-7.50 22.98-3.42L22.98-3.42L22.98-3.42Q20.63 0.66 14.75 0.66L14.75 0.66L14.75 0.66Q8.88 0.66 6.38-3.55L6.38-3.55L6.38-3.55Q3.88-7.75 3.88-16.22L3.88-16.22ZM47.69-47.44L47.69-47.44L47.69-47.44Q47.81-47.44 47.81-43.38L47.81-43.38L47.78-42L47.78-42Q42.16-42 39.72-38.09L39.72-38.09L39.72 0L33.28 0L33.28-46.88L39.72-46.88L39.72-41.66L39.72-41.66Q40.53-44.41 42.58-45.92L42.58-45.92L42.58-45.92Q44.63-47.44 47.69-47.44ZM67.09-8L67.09-25.84L67.09-25.84Q63.16-24.06 61.84-23.09L61.84-23.09L61.84-23.09Q60.53-22.13 59.86-20.83L59.86-20.83L59.86-20.83Q59.19-19.53 59.19-16.56L59.19-16.56L59.19-12.22L59.19-12.22Q59.19-8.13 59.91-6.45L59.91-6.45L59.91-6.45Q60.63-4.78 62.38-4.78L62.38-4.78L62.38-4.78Q64.13-4.78 65.38-5.80L65.38-5.80L65.38-5.80Q66.63-6.81 67.09-8L67.09-8ZM53.31-31.97L53.31-33.31L53.31-33.31Q53.31-41.81 55.97-44.63L55.97-44.63L55.97-44.63Q58.63-47.44 63.53-47.44L63.53-47.44L63.53-47.44Q68.44-47.44 70.64-45.06L70.64-45.06L70.64-45.06Q72.84-42.69 73.34-37.44L73.34-37.44L73.34-37.44Q73.56-35.19 73.56-31.91L73.56-31.91L73.56 0L67.13 0L67.13-4.06L67.13-4.06Q66.63-2.38 64.94-0.98L64.94-0.98L64.94-0.98Q63.25 0.41 60.75 0.41L60.75 0.41L60.75 0.41Q52.78 0.41 52.72-12.03L52.72-12.03L52.72-16.59L52.72-16.59Q52.72-20.63 54.92-23.48L54.92-23.48L54.92-23.48Q57.13-26.34 67.09-30L67.09-30L67.09-33.63L67.09-33.63Q67.09-39.66 66.22-40.88L66.22-40.88L66.22-40.88Q65.34-42.09 63.23-42.09L63.23-42.09L63.23-42.09Q61.13-42.09 60.41-40.25L60.41-40.25L60.41-40.25Q59.69-38.41 59.69-33.59L59.69-33.59L59.69-31.97L53.31-31.97ZM80.88-41.34L80.88-46.88L97.03-46.88L97.03-42.47L86.69-5.47L96.50-5.47L96.50 0L80.09 0L80.09-4.78L90.41-41.34L80.88-41.34ZM113.34-22.50L116.41-46.88L122.59-46.88L114.81 0.91L114.81 0.91Q114.25 4.81 113.38 6L113.38 6L113.38 6Q112.50 7.19 111.44 7.52L111.44 7.52L111.44 7.52Q110.38 7.84 108.66 7.84L108.66 7.84L102.38 7.84L102.38 3L104.59 3L104.59 3Q107.88 3 108.22 2.25L108.22 2.25L108.22 2.25Q108.50 1.91 108.50 0.91L108.50 0.91L108.50 0.91Q108.50-0.09 108.25-1.66L108.25-1.66L100.59-46.88L106.81-46.88L110.19-22.50L111.56-9.81L112.13-9.81L113.34-22.50ZM143.28-16.22L143.28-39.13L143.28-39.13Q143.28-45.38 144.31-48.31L144.31-48.31L144.31-48.31Q145.34-51.25 146.56-52.63L146.56-52.63L146.56-52.63Q149.22-55.63 154.31-55.66L154.31-55.66L154.31-55.66Q161.44-55.63 163.50-49.38L163.50-49.38L163.50-49.38Q164.69-45.78 164.69-39.81L164.69-39.81L164.69-33.72L158.34-33.72L158.34-39.84L158.34-39.84Q158.34-45.13 157.77-46.98L157.77-46.98L157.77-46.98Q157.19-48.84 156.38-49.45L156.38-49.45L156.38-49.45Q155.56-50.06 154.31-50.06L154.31-50.06L154.31-50.06Q151.72-50.06 150.73-47.61L150.73-47.61L150.73-47.61Q149.75-45.16 149.75-39.88L149.75-39.88L149.75-16.06L149.75-16.06Q149.75-9.81 150.64-7.33L150.64-7.33L150.64-7.33Q151.53-4.84 154.08-4.84L154.08-4.84L154.08-4.84Q156.63-4.84 157.48-7.34L157.48-7.34L157.48-7.34Q158.34-9.84 158.34-16.09L158.34-16.09L158.34-22.19L164.75-22.19L164.75-16.16L164.75-16.16Q164.75-7.50 162.39-3.42L162.39-3.42L162.39-3.42Q160.03 0.66 154.16 0.66L154.16 0.66L154.16 0.66Q148.28 0.66 145.78-3.55L145.78-3.55L145.78-3.55Q143.28-7.75 143.28-16.22L143.28-16.22ZM186.41-8L186.41-25.84L186.41-25.84Q182.47-24.06 181.16-23.09L181.16-23.09L181.16-23.09Q179.84-22.13 179.17-20.83L179.17-20.83L179.17-20.83Q178.50-19.53 178.50-16.56L178.50-16.56L178.50-12.22L178.50-12.22Q178.50-8.13 179.22-6.45L179.22-6.45L179.22-6.45Q179.94-4.78 181.69-4.78L181.69-4.78L181.69-4.78Q183.44-4.78 184.69-5.80L184.69-5.80L184.69-5.80Q185.94-6.81 186.41-8L186.41-8ZM172.63-31.97L172.63-33.31L172.63-33.31Q172.63-41.81 175.28-44.63L175.28-44.63L175.28-44.63Q177.94-47.44 182.84-47.44L182.84-47.44L182.84-47.44Q187.75-47.44 189.95-45.06L189.95-45.06L189.95-45.06Q192.16-42.69 192.66-37.44L192.66-37.44L192.66-37.44Q192.88-35.19 192.88-31.91L192.88-31.91L192.88 0L186.44 0L186.44-4.06L186.44-4.06Q185.94-2.38 184.25-0.98L184.25-0.98L184.25-0.98Q182.56 0.41 180.06 0.41L180.06 0.41L180.06 0.41Q172.09 0.41 172.03-12.03L172.03-12.03L172.03-16.59L172.03-16.59Q172.03-20.63 174.23-23.48L174.23-23.48L174.23-23.48Q176.44-26.34 186.41-30L186.41-30L186.41-33.63L186.41-33.63Q186.41-39.66 185.53-40.88L185.53-40.88L185.53-40.88Q184.66-42.09 182.55-42.09L182.55-42.09L182.55-42.09Q180.44-42.09 179.72-40.25L179.72-40.25L179.72-40.25Q179-38.41 179-33.59L179-33.59L179-31.97L172.63-31.97ZM202.75-46.50L202.75-55L209.16-55L209.16-46.50L214.22-46.50L214.22-41.75L209.16-41.75L209.16-7.53L209.16-7.53Q209.16-5.72 210-5.27L210-5.27L210-5.27Q210.84-4.81 214.28-4.81L214.28-4.81L214.28 0.28L209.88 0.28L209.88 0.28Q205.44 0.28 204.09-1.33L204.09-1.33L204.09-1.33Q202.75-2.94 202.75-6.97L202.75-6.97L202.75-41.75L198.47-41.75L198.47-46.50L202.75-46.50Z"
                  fill="#eb6c6c"></path>
        </g>
    </g>
    <style>text {
        font-size: 64px;
        font-family: Arial Black;
        dominant-baseline: central;
        text-anchor: middle;
        }
    </style>
</svg>
